src/lib/packages/icons/src/assets/filled/envelope-clock.svg

<svg width="24" height="24" viewBox="0 0 24 24" fill="none" xmlns="http://www.w3.org/2000/svg">
<path d="M17.5701 12.586C18.2921 12.453 18.9779 12.482 19.6289 12.625C19.8189 12.667 20 12.532 20 12.337V7C20 5 19 4 17 4H5C3 4 2 5 2 7V16C2 18 3 19 5 19H13.3369C13.5319 19 13.667 18.819 13.625 18.629C13.481 17.976 13.4519 17.288 13.5869 16.564C13.9569 14.57 15.5761 12.953 17.5701 12.586ZM12.0291 12.179C11.7211 12.403 11.36 12.515 11 12.515C10.64 12.515 10.2779 12.403 9.97095 12.18L5.05908 8.60699C4.72408 8.36399 4.65004 7.89401 4.89404 7.55901C5.13704 7.22601 5.60489 7.149 5.94189 7.394L10.854 10.966C10.942 11.029 11.059 11.03 11.147 10.966L16.0591 7.394C16.3971 7.149 16.8639 7.22501 17.1069 7.55901C17.3509 7.89401 17.2769 8.36299 16.9419 8.60699L12.0291 12.179ZM18.5 14C16.567 14 15 15.567 15 17.5C15 19.433 16.567 21 18.5 21C20.433 21 22 19.433 22 17.5C22 15.567 20.433 14 18.5 14ZM19.791 18.791C19.693 18.889 19.565 18.937 19.437 18.937C19.309 18.937 19.181 18.888 19.083 18.791L18.145 17.854C18.051 17.76 17.999 17.633 17.999 17.5V16.188C17.999 15.912 18.223 15.688 18.499 15.688C18.775 15.688 18.999 15.912 18.999 16.188V17.293L19.79 18.084C19.986 18.279 19.986 18.595 19.791 18.791Z" fill="currentColor"/>
</svg>

<svg xmlns="http://www.w3.org/2000/svg" width="24" height="24" fill="none"><path fill="currentColor" d="M17.57 12.586a5.146 5.146 0 0 1 2.059.039.3.3 0 0 0 .371-.288V7c0-2-1-3-3-3H5C3 4 2 5 2 7v9c0 2 1 3 3 3h8.337a.3.3 0 0 0 .288-.371 5.123 5.123 0 0 1-.038-2.065c.37-1.994 1.99-3.611 3.983-3.978Zm-5.54-.407a1.748 1.748 0 0 1-2.059.001L5.059 8.607a.75.75 0 1 1 .883-1.213l4.912 3.572a.25.25 0 0 0 .293 0l4.912-3.572a.75.75 0 1 1 .883 1.213l-4.913 3.572ZM18.5 14a3.5 3.5 0 1 0 0 7 3.5 3.5 0 0 0 0-7Zm1.291 4.791a.498.498 0 0 1-.708 0l-.938-.937a.5.5 0 0 1-.146-.354v-1.312a.5.5 0 0 1 1 0v1.105l.791.791a.5.5 0 0 1 .001.707Z"/></svg>
